img/steps-icons/img1.svg

<svg width="42" height="49" viewBox="0 0 42 49" fill="none" xmlns="http://www.w3.org/2000/svg">
<path d="M31.0296 0H2.9933C1.41582 0 0.132446 1.28338 0.132446 2.86085V12.5877C0.132446 13.1144 0.559476 13.5414 1.08606 13.5414C1.61265 13.5414 2.03968 13.1144 2.03968 12.5877V2.86085C2.03968 2.33503 2.46747 1.90723 2.9933 1.90723H31.0296C31.5555 1.90723 31.9833 2.33503 31.9833 2.86085V38.3354C31.9833 38.8612 31.5555 39.289 31.0296 39.289H2.9933C2.46747 39.289 2.03968 38.8612 2.03968 38.3354V20.6299C2.03968 20.1032 1.61265 19.6763 1.08606 19.6763C0.559476 19.6763 0.132446 20.1032 0.132446 20.6299V38.3354C0.132446 39.9129 1.41582 41.1963 2.9933 41.1963H31.0296C32.6071 41.1963 33.8905 39.9129 33.8905 38.3354V2.86085C33.8905 1.28338 32.6071 0 31.0296 0Z" fill="#0383FD"/>
<path d="M1.76018 16.1828C1.5829 16.0054 1.33686 15.9043 1.08606 15.9043C0.835262 15.9043 0.589229 16.0054 0.411856 16.1828C0.234388 16.3611 0.132446 16.6071 0.132446 16.857C0.132446 17.1087 0.234483 17.3538 0.411856 17.5321C0.589229 17.7095 0.835262 17.8115 1.08606 17.8115C1.33677 17.8115 1.5828 17.7095 1.76018 17.5321C1.93764 17.3547 2.03968 17.1087 2.03968 16.857C2.03968 16.6062 1.93755 16.3611 1.76018 16.1828Z" fill="#0383FD"/>
<path d="M5.58034 43.3885C5.40297 43.2112 5.15798 43.1091 4.90613 43.1091C4.65533 43.1091 4.4093 43.2112 4.23202 43.3885C4.05455 43.5659 3.95251 43.8119 3.95251 44.0627C3.95251 44.3145 4.05465 44.5596 4.23202 44.737C4.4093 44.9153 4.65533 45.0164 4.90613 45.0164C5.15798 45.0164 5.40297 44.9153 5.58034 44.737C5.75781 44.5596 5.85975 44.3145 5.85975 44.0627C5.85975 43.8119 5.75771 43.5659 5.58034 43.3885Z" fill="#0383FD"/>
<path d="M36.7574 3.82056C36.2308 3.82056 35.8038 4.24749 35.8038 4.77417V42.156C35.8038 42.6818 35.376 43.1096 34.8502 43.1096H8.72107C8.19449 43.1096 7.76746 43.5365 7.76746 44.0632C7.76746 44.5899 8.19449 45.0168 8.72107 45.0168H34.8502C36.4277 45.0168 37.711 43.7334 37.711 42.156V4.77417C37.711 4.24749 37.284 3.82056 36.7574 3.82056Z" fill="#0383FD"/>
<path d="M40.5777 7.62891C40.0512 7.62891 39.6241 8.05584 39.6241 8.58252V45.9643C39.6241 46.4901 39.1963 46.9179 38.6705 46.9179H8.72693C8.20035 46.9179 7.77332 47.3449 7.77332 47.8715C7.77332 48.3982 8.20035 48.8252 8.72693 48.8252H38.6705C40.248 48.8252 41.5314 47.5418 41.5314 45.9643V8.58252C41.5314 8.05584 41.1043 7.62891 40.5777 7.62891Z" fill="#0383FD"/>
<path d="M15.581 7.05688H6.42627C5.89969 7.05688 5.47266 7.48382 5.47266 8.0105V17.1652C5.47266 17.6919 5.89969 18.1188 6.42627 18.1188H15.581C16.1076 18.1188 16.5346 17.6919 16.5346 17.1652V8.0105C16.5346 7.48382 16.1076 7.05688 15.581 7.05688ZM14.6274 16.2116H7.37989V8.96412H14.6274V16.2116Z" fill="#0383FD"/>
<path d="M12.5126 22.4482C12.1401 22.0759 11.5365 22.0758 11.1639 22.4482L8.62893 24.9832L7.45026 23.8044C7.07787 23.432 6.47423 23.4321 6.10156 23.8044C5.72917 24.1768 5.72917 24.7807 6.10156 25.153L7.95462 27.0061C8.13352 27.1849 8.37603 27.2854 8.62893 27.2854C8.88192 27.2854 9.12433 27.1849 9.30333 27.0061L12.5126 23.7968C12.885 23.4244 12.885 22.8206 12.5126 22.4482Z" fill="#0383FD"/>
<path d="M28.137 23.7451H17.0115C16.4849 23.7451 16.0579 24.1721 16.0579 24.6987C16.0579 25.2254 16.4849 25.6524 17.0115 25.6524H28.137C28.6636 25.6524 29.0907 25.2254 29.0907 24.6987C29.0907 24.1721 28.6636 23.7451 28.137 23.7451Z" fill="#0383FD"/>
<path d="M27.5966 7.05688H20.9213C20.3947 7.05688 19.9677 7.48382 19.9677 8.0105C19.9677 8.53718 20.3947 8.96412 20.9213 8.96412H27.5966C28.1232 8.96412 28.5502 8.53718 28.5502 8.0105C28.5502 7.48382 28.1232 7.05688 27.5966 7.05688Z" fill="#0383FD"/>
<path d="M27.5966 11.634H20.9213C20.3947 11.634 19.9677 12.061 19.9677 12.5877C19.9677 13.1143 20.3947 13.5413 20.9213 13.5413H27.5966C28.1232 13.5413 28.5502 13.1143 28.5502 12.5877C28.5502 12.061 28.1232 11.634 27.5966 11.634Z" fill="#0383FD"/>
<path d="M27.5966 16.2114H20.9213C20.3947 16.2114 19.9677 16.6384 19.9677 17.165C19.9677 17.6917 20.3947 18.1187 20.9213 18.1187H27.5966C28.1232 18.1187 28.5502 17.6917 28.5502 17.165C28.5502 16.6384 28.1232 16.2114 27.5966 16.2114Z" fill="#0383FD"/>
<path d="M12.5126 29.7309C12.1401 29.3586 11.5365 29.3585 11.1639 29.7309L8.62893 32.2659L7.45026 31.0871C7.07787 30.7148 6.47423 30.7149 6.10156 31.0871C5.72917 31.4595 5.72917 32.0634 6.10156 32.4358L7.95462 34.2888C8.13352 34.4676 8.37603 34.5681 8.62893 34.5681C8.88192 34.5681 9.12433 34.4676 9.30333 34.2888L12.5126 31.0795C12.885 30.7071 12.885 30.1033 12.5126 29.7309Z" fill="#0383FD"/>
<path d="M28.137 30.9927H17.0115C16.4849 30.9927 16.0579 31.4196 16.0579 31.9463C16.0579 32.473 16.4849 32.8999 17.0115 32.8999H28.137C28.6636 32.8999 29.0907 32.473 29.0907 31.9463C29.0907 31.4196 28.6636 30.9927 28.137 30.9927Z" fill="#0383FD"/>
</svg>

<svg width="42" height="49" fill="none" xmlns="http://www.w3.org/2000/svg"><path d="M31.03 0H2.993a2.864 2.864 0 00-2.86 2.86v9.728a.954.954 0 001.907 0V2.86c0-.526.427-.954.953-.954H31.03c.525 0 .953.428.953.954v35.474a.955.955 0 01-.953.954H2.993a.955.955 0 01-.953-.954V20.63a.954.954 0 00-1.908 0v17.705a2.864 2.864 0 002.861 2.861H31.03a2.864 2.864 0 002.86-2.86V2.86A2.864 2.864 0 0031.03 0z" fill="#0383FD"/><path d="M1.76 16.183a.96.96 0 00-1.348 0 .964.964 0 00-.28.674.96.96 0 00.28.675.96.96 0 00.674.28.96.96 0 00.674-.28.961.961 0 00.28-.675.963.963 0 00-.28-.674zm3.82 27.206a.96.96 0 00-.674-.28.96.96 0 00-.674.28.96.96 0 00-.28.674.956.956 0 001.628.674.959.959 0 00.28-.674.96.96 0 00-.28-.675zM36.757 3.82a.954.954 0 00-.953.954v37.382a.955.955 0 01-.954.954H8.721a.954.954 0 000 1.907h26.13a2.864 2.864 0 002.86-2.861V4.774a.954.954 0 00-.954-.953z" fill="#0383FD"/><path d="M40.578 7.629a.954.954 0 00-.954.954v37.381a.955.955 0 01-.954.954H8.727a.954.954 0 000 1.907H38.67a2.864 2.864 0 002.861-2.86V8.582a.954.954 0 00-.953-.954zm-24.997-.572H6.426a.954.954 0 00-.953.954v9.154c0 .527.427.954.953.954h9.155a.954.954 0 00.954-.954V8.011a.954.954 0 00-.954-.954zm-.954 9.155H7.38V8.964h7.247v7.248zm-2.114 6.236a.954.954 0 00-1.35 0L8.63 24.983l-1.18-1.179a.954.954 0 00-1.348 1.349l1.853 1.853a.954.954 0 001.348 0l3.21-3.21a.954.954 0 000-1.348z" fill="#0383FD"/><path d="M28.137 23.745H17.012a.954.954 0 000 1.907h11.125a.954.954 0 000-1.907zm-.54-16.688H20.92a.954.954 0 000 1.907h6.676a.954.954 0 000-1.907zm0 4.577H20.92a.954.954 0 000 1.907h6.676a.954.954 0 000-1.907zm0 4.577H20.92a.954.954 0 000 1.908h6.676a.954.954 0 000-1.908zM12.513 29.73a.954.954 0 00-1.35 0L8.63 32.267l-1.18-1.18a.954.954 0 00-1.348 1.349l1.853 1.853a.954.954 0 001.348 0l3.21-3.21a.954.954 0 000-1.348zm15.624 1.263H17.012a.954.954 0 000 1.907h11.125a.954.954 0 100-1.907z" fill="#0383FD"/></svg>
